!!!OTL: Es spielten einst drei Br&uuml;der (Band 1), S. 141
!!!id: P0820
**kern
*clefG2
*k[b-]
*F:
{4cc
=1
4.cc
8cc
4cc
4cc
=2
2a
4a}
=3
{4cc
=4
4dd
4cc
8b-
8b-
4a
=5
4g}
2r
=6
{4b-
=7
4a
4cc
8g
8b-
8a
8g
=8
4.f
8c
4f}
=9
{8a
8cc
=10
2cc
2cc
=11
4a}
2r
==
*-
!!!minrhy: 8
!!!meters: 4/4 ]  ZZ[4
!!!cut: Es spielten einst drei Br&uuml;der (Band 1), S. 141
!!!reg: Lothringen
!!!trd: PINCK, Louis: Verklingende Weisen, Bd 1, Metz 1928
!!!rhy1: X_  X_.XX_X_  X__X_
!!!rhy2: X_  X_X_XXX_  X_0__
!!!key: P0820  08  F 4/4 ]  ZZ[4
!!!mod: SECHSTONSKALA DUR ?]  AMBITUS[9
!!!kad: 3213
!!!akz: 5533_642_3211_553_
!!!fot: 'a__b__c__av_
!!!for: 'a__b__c__d__
!!!fok: '\__\__Vd_^__
!! PHRAS[AUFTAKTIG]
!!!fkt: Soldatenlied
!! LOTH VKL
!! PR[33] 2K[7] 2G[6] 3K[4] 3G[0] 4A[0] 4Ü[0] 5A[6] 6K[0] 6G[0]
!! 7K[0] 7G[0] 8A[0] MEHR[0] SI[23] ABS[70] SR[13] SP[10]
!! ST[24] 2k[16] 2g[26] 3k[3] 3g[0] 4d[0] 4ü[0] 5d[0] 6k[0] 6g[0]
!! 7k[0] 7g[0] 8d[0] mehr[0] si[44] dm[-21] sr[41] sp[3]
!! 1F[4] 2F[69] 3F[13] 4F[1] LF[0] 2P[4] 3P[8] 4P[0] TRI[0] DF[6] AB[72]
!! TF[0] U3K[0] U3[0] U4[0] U4Ü[0] U5[0] U6K[0] U6[0] U7K[0] U7[1]
!! N1[25] N2K[0] N2[23] N3K[15] N3[0] N4[20] N4Ü[0] N5[15] N6K[0] N6[0]
!!!n7k: 0] N7[0] O1[0] O2K[0] O2[0] O3K[0] O3[0] HÖ[0
!!!RNB: symbol: &uuml;  = u umlaut (UTF-8: Ã¼)
